X:74
T:Jack's Whim
M:2/4
L:1/8
B:Thompson's Compleat Collection of 200 Favourite Country Dances, vol. 3 (London, 1773)
Z:Transcribed and edited by Flynn Titford-Mock, 2007
Z:abc's:AK/Fiddler's Companion
K:F
cc A2 | G>ABG | cc A2 BG F2::c>ccA | defd | cdcA | G2G2 | BABc | defd | cB/A/ BA/G/ | F2F2 :|

